svgs/sharp-solid/arrow-down-small-big.svg

<svg xmlns="http://www.w3.org/2000/svg" viewBox="0 0 576 512"><!--! Font Awesome Pro 6.6.0 by @fontawesome - https://fontawesome.com License - https://fontawesome.com/license (Commercial License) Copyright 2024 Fonticons, Inc. --><path d="M320 32l160 0 0 160-160 0 0-160zm0 224l224 0 0 224-224 0 0-224zM183.7 453.5l-23.7 26-23.7-26-80-88L34.8 341.8l47.4-43 21.5 23.7L128 349.2 128 80l0-32 64 0 0 32 0 269.2 24.3-26.8 21.5-23.7 47.4 43-21.5 23.7-80 88z"/></svg>

<svg xmlns="http://www.w3.org/2000/svg" viewBox="0 0 576 512"><!--! Font Awesome Pro 6.4.2 by @fontawesome - https://fontawesome.com License - https://fontawesome.com/license (Commercial License) Copyright 2023 Fonticons, Inc. --><path d="M320 32H480V192H320V32zm0 224H544V480H320V256zM183.7 453.5l-23.7 26-23.7-26-80-88L34.8 341.8l47.4-43 21.5 23.7L128 349.2V80 48h64V80 349.2l24.3-26.8 21.5-23.7 47.4 43-21.5 23.7-80 88z"/></svg>
